X:100
T:Robin Hood & the Beggar
T:What are the words. The tune seems good.
Z:Jack Campin - http://www.campin.me.uk
S:Blaikie MS (NLS MS.1578) p29, Blaikie #94
M:6/8
L:1/8
V:1 midi program 1 74
V:2 midi program 1 46 bass middle = d transpose -24
Q:3/8=108
K:F
[V:1] C|F2F F2G|A2B c2c|cff fef|A3 z2
[V:2] z|F3  f3 |F3  f3 |f3  f3 |F3 z2
%
[V:1] G|Add d2d|cAF CFG|ABA GFG|F3 z2|]
[V:2] z|f3  b3 |a3  f3 |c3  c3 |f3 z2|]
W:Transcription (c) Jack Campin 2009, no mirroring or republication without permission

